X:1
T:Edelweiss
T:Edelweiss
%%score 1 2
L:1/8
M:3/4
K:C
V:1 treble transpose=-2 nm="B♭ Clarinet" snm="B♭ Cl."
V:2 treble nm="Flute" snm="Fl."
V:1
[K:D] F4 A2 | e6 | d4 A2 | G6 | A4 A2 | A2 B2 c2 | d6 | c6 | F4 A2 | e6 | d4 A2 | G6 | A4 A2 | %13
 A2 B2 c2 | d6 | d6 | e3 A A2 | c2 B2 A2 | F4 A2 | d6 | B4 d2 | e4 d2 | c6 | A6 | F4 A2 | e6 | %26
 d4 A2 | G6 | F4 A2 | A2 B2 c2 | d6 | d6 :| %32
V:2
 z6 | e2 g2 d'2 | c'6 | c'2 g2 f2 | e4 e2 | e2 f2 g2 | f6 | b6 | z6 | e2 g2 d'2 | c'6 | c'2 g2 f2 | %12
 e4 e2 | e2 a2 b2 | c'6 | c'6 | b3 e e2 | f2 d2 g2 | g4 e2 | c6 | a4 c'2 | ^f6 | d6 | g6 | g6 | %25
 _b6 | a6 | c'2 _a2 f2 | g6 | d2 c2 B2 | c'6 | c'6 :| %32

